img/icons/in-red.svg

<svg xmlns="http://www.w3.org/2000/svg" xmlns:xlink="http://www.w3.org/1999/xlink" width="24" height="24" viewBox="0 0 24 24">
    <defs>
        <path id="a" d="M10 19a9 9 0 1 0 0-18 9 9 0 0 0 0 18zm0 1C4.477 20 0 15.523 0 10S4.477 0 10 0s10 4.477 10 10-4.477 10-10 10zm2.789-14.545H7.21c-.968 0-1.756.787-1.756 1.756v5.578c0 .969.788 1.756 1.756 1.756h5.578c.968 0 1.756-.787 1.756-1.756V7.21c0-.969-.788-1.756-1.756-1.756zm.504 1.048l.2-.001v1.54l-1.536.005-.005-1.54 1.34-.004zm-4.59 2.564c.29-.403.763-.667 1.297-.667.534 0 1.006.264 1.297.667.19.263.303.585.303.933 0 .882-.718 1.6-1.6 1.6-.882 0-1.6-.718-1.6-1.6 0-.348.114-.67.303-.933zm4.957 3.722c0 .48-.391.87-.871.87H7.21a.872.872 0 0 1-.87-.87V9.067h1.357a2.468 2.468 0 0 0-.183.933A2.489 2.489 0 0 0 10 12.486 2.489 2.489 0 0 0 12.486 10c0-.33-.067-.645-.183-.933h1.357v3.722z"/>
    </defs>
    <g fill="none" fill-rule="evenodd">
        <path d="M2 2h20v20H2z"/>
        <g transform="translate(2 2)">
            <mask id="b" fill="#fff">
                <use xlink:href="#a"/>
            </mask>
            <use fill="#000" fill-rule="nonzero" xlink:href="#a"/>
            <g mask="url(#b)">
                <path fill="#ED1C24" d="M-2-2h24v24H-2z"/>
            </g>
        </g>
    </g>
</svg>

<?xml version="1.0" encoding="utf-8"?>
<!-- Generator: Adobe Illustrator 16.2.0, SVG Export Plug-In . SVG Version: 6.00 Build 0)  -->
<!DOCTYPE svg PUBLIC "-//W3C//DTD SVG 1.1//EN" "http://www.w3.org/Graphics/SVG/1.1/DTD/svg11.dtd">
<svg version="1.1" id="Слой_1" xmlns="http://www.w3.org/2000/svg" xmlns:xlink="http://www.w3.org/1999/xlink" x="0px" y="0px"
	 width="24px" height="24px" viewBox="0 0 24 24" enable-background="new 0 0 24 24" xml:space="preserve">
<g>
	<path fill="none" d="M2,2h20v20H2V2z"/>
	<g transform="translate(2 2)">
		<g>
			<path id="a_1_" fill="#ED1C24" d="M10,19c4.971,0,9-4.029,9-9s-4.029-9-9-9s-9,4.029-9,9S5.029,19,10,19z M10,20
				C4.477,20,0,15.523,0,10C0,4.477,4.477,0,10,0c5.523,0,10,4.477,10,10C20,15.523,15.523,20,10,20z M12.789,5.455H7.21
				c-0.968,0-1.756,0.787-1.756,1.756v5.578c0,0.969,0.788,1.756,1.756,1.756h5.578c0.968,0,1.756-0.787,1.756-1.756V7.21
				C14.544,6.241,13.756,5.454,12.789,5.455L12.789,5.455z M13.293,6.503l0.2-0.001v1.54l-1.536,0.005l-0.005-1.54L13.293,6.503
				L13.293,6.503z M8.703,9.067C8.993,8.664,9.466,8.4,10,8.4s1.006,0.264,1.297,0.667C11.486,9.33,11.6,9.652,11.6,10
				c0,0.882-0.718,1.6-1.6,1.6S8.4,10.882,8.4,10C8.4,9.652,8.514,9.33,8.703,9.067z M13.66,12.789c0,0.48-0.391,0.87-0.871,0.87
				H7.21c-0.48-0.001-0.869-0.39-0.87-0.87V9.067h1.357C7.576,9.363,7.514,9.68,7.514,10c0.001,1.372,1.114,2.484,2.486,2.486
				c1.372-0.002,2.484-1.114,2.486-2.486c0-0.33-0.067-0.645-0.184-0.933h1.357V12.789z"/>
		</g>
	</g>
</g>
</svg>
